X: 538
T: Songhe gege
L: 1/8
M: 2/4
K: F
F2F D [I:setbarnb 1]| 
c2c2 | 
d f c A | 
G FG2 | 
G Ac2 | 
f dc2 | 
A G F D | 
C4 | 
A GF2 | 
G c A c | 
G A F C | 
D4 | 
G Ac2 | 
f dc2 | 
F F D F | 
G A F D | 
C4 |]

@@@ Tune index: 9412
